assets/twitter.svg

<svg width="22" height="22" viewBox="0 0 22 22" fill="none" xmlns="http://www.w3.org/2000/svg">
<path d="M20.3153 5.1846C19.6155 5.49415 18.8733 5.69745 18.1134 5.78777C18.9144 5.30875 19.5138 4.55486 19.8001 3.6666C19.0484 4.11393 18.2244 4.42743 17.3654 4.59702C16.7885 3.97971 16.0238 3.57032 15.1902 3.43247C14.3565 3.29462 13.5007 3.43605 12.7558 3.83476C12.0108 4.23348 11.4185 4.86714 11.0708 5.63724C10.7231 6.40734 10.6396 7.27073 10.8333 8.09318C9.30896 8.01678 7.81775 7.62066 6.45646 6.93054C5.09516 6.24042 3.89423 5.27173 2.93161 4.08735C2.59088 4.6726 2.41182 5.33789 2.41278 6.0151C2.41278 7.34427 3.08928 8.51852 4.11778 9.20602C3.50912 9.18685 2.91386 9.02248 2.38161 8.7266V8.77427C2.38179 9.65949 2.68811 10.5174 3.24864 11.2026C3.80916 11.8877 4.58938 12.358 5.45703 12.5335C4.89201 12.6866 4.29956 12.7092 3.72453 12.5995C3.96915 13.3615 4.44595 14.0279 5.08815 14.5054C5.73035 14.9829 6.50581 15.2476 7.30594 15.2624C6.51072 15.887 5.60019 16.3487 4.62642 16.6211C3.65264 16.8935 2.63473 16.9713 1.63086 16.8501C3.38325 17.9771 5.4232 18.5754 7.50669 18.5734C14.5586 18.5734 18.415 12.7315 18.415 7.6651C18.415 7.5001 18.4104 7.33327 18.4031 7.1701C19.1537 6.62759 19.8016 5.95553 20.3162 5.18552L20.3153 5.1846Z" fill="#1A191E"/>
</svg>

<svg width="22" height="22" fill="none" xmlns="http://www.w3.org/2000/svg"><path d="M20.315 5.185c-.7.31-1.442.512-2.202.603A3.846 3.846 0 0 0 19.8 3.667a7.661 7.661 0 0 1-2.435.93 3.833 3.833 0 0 0-6.532 3.496 10.884 10.884 0 0 1-7.901-4.006 3.833 3.833 0 0 0 1.186 5.119 3.82 3.82 0 0 1-1.736-.48v.048a3.836 3.836 0 0 0 3.075 3.76 3.86 3.86 0 0 1-1.732.066 3.836 3.836 0 0 0 3.58 2.662 7.693 7.693 0 0 1-5.674 1.588 10.844 10.844 0 0 0 5.876 1.723c7.052 0 10.908-5.841 10.908-10.908 0-.165-.005-.332-.012-.495a7.788 7.788 0 0 0 1.913-1.984v-.001Z" fill="#1A191E"/></svg>
